src/images/icons/telegram.svg

<svg width="16" height="14" viewBox="0 0 16 14" fill="none" xmlns="http://www.w3.org/2000/svg">
<path fill-rule="evenodd" clip-rule="evenodd" d="M1.09992 6.07838C5.39488 4.20714 8.25885 2.9735 9.69185 2.37746C13.7834 0.675666 14.6335 0.380046 15.1877 0.370284C15.3095 0.368137 15.5821 0.398342 15.7586 0.541575C15.9076 0.662518 15.9486 0.825894 15.9683 0.940562C15.9879 1.05523 16.0123 1.31644 15.9929 1.52055C15.7712 3.85018 14.8118 9.50358 14.3237 12.1128C14.1172 13.2169 13.7105 13.587 13.3169 13.6233C12.4613 13.702 11.8116 13.0579 10.9829 12.5147C9.68624 11.6647 8.9537 11.1355 7.69503 10.3061C6.24043 9.34753 7.18339 8.82069 8.01236 7.95968C8.22931 7.73435 11.999 4.30555 12.0719 3.9945C12.0811 3.9556 12.0895 3.81059 12.0034 3.73402C11.9172 3.65745 11.7901 3.68364 11.6983 3.70446C11.5683 3.73398 9.49681 5.10315 5.48389 7.81198C4.89591 8.21574 4.36333 8.41246 3.88616 8.40215C3.36012 8.39079 2.34822 8.10472 1.59598 7.86019C0.673329 7.56028 -0.0599771 7.40171 0.00387747 6.89235C0.0371368 6.62705 0.402484 6.35573 1.09992 6.07838Z" fill="#D0D0DA"/>
</svg>

<svg xmlns="http://www.w3.org/2000/svg" width="16" height="14" fill="none"><path fill="#D0D0DA" fill-rule="evenodd" d="M1.1 6.078q6.443-2.806 8.592-3.7C13.783.675 14.634.38 15.188.37c.121-.002.394.028.57.172.15.12.19.284.21.399.02.114.044.375.025.58-.222 2.33-1.181 7.983-1.67 10.592-.206 1.104-.613 1.474-1.006 1.51-.856.079-1.505-.565-2.334-1.108-1.297-.85-2.03-1.38-3.288-2.209-1.455-.958-.512-1.485.317-2.346.217-.226 3.987-3.654 4.06-3.965.01-.04.018-.184-.069-.261-.086-.077-.213-.05-.305-.03q-.195.045-6.214 4.108-.881.605-1.598.59c-.526-.011-1.538-.297-2.29-.542-.923-.3-1.656-.458-1.592-.968q.05-.397 1.096-.814" clip-rule="evenodd"/></svg>
